docs/img/BTC.svg

<?xml version="1.0" encoding="UTF-8"?>
<svg width="32px" height="32px" viewBox="0 0 32 32" version="1.1" xmlns="http://www.w3.org/2000/svg" xmlns:xlink="http://www.w3.org/1999/xlink">
    <title>690AE9B6-7311-4B7B-8A54-E08AA02E5E88</title>
    <defs>
        <path d="M31.5210875,19.8705962 C29.3838598,28.4420092 20.7014351,33.6584563 12.128022,31.5209779 C3.55810924,29.3839996 -1.65894641,20.7020877 0.479281328,12.1311747 C2.61550885,3.55876172 11.2979336,-1.65818533 19.8688464,0.478792978 C28.4417595,2.61577129 33.6583151,11.2986832 31.5210875,19.8705962 Z" id="path-1"></path>
    </defs>
    <g id="Symbols" stroke="none" stroke-width="1" fill="none" fill-rule="evenodd">
        <g id="icon-coin-bitcoin-lapis">
            <mask id="mask-2" fill="white">
                <use xlink:href="#path-1"></use>
            </mask>
            <use id="Path" fill="#F7931A" fill-rule="nonzero" xlink:href="#path-1"></use>
            <path d="M22.9607972,14.0403721 C23.2729092,11.9388495 21.6844208,10.8091207 19.5123761,10.0554747 L20.2169554,7.2086963 L18.4966647,6.77684278 L17.8107042,9.54860203 C17.3584603,9.43508625 16.8939671,9.32798658 16.4324137,9.221874 L17.1232739,6.43185352 L15.403963,6 L14.6988937,8.84579128 C14.3245553,8.75991412 13.9570765,8.67502406 13.600377,8.58569208 L13.6023369,8.57680823 L11.2298937,7.98011006 L10.7722601,9.83091084 C10.7722601,9.83091084 12.0486365,10.1255583 12.0216881,10.1438196 C12.7184279,10.3190287 12.8443506,10.7834563 12.8232818,11.1516423 L12.0207081,14.3947388 C12.0687254,14.4070775 12.1309518,14.4248451 12.1995478,14.4524838 C12.1422211,14.4381709 12.0809747,14.4223774 12.0177683,14.4070775 L10.8927932,18.9501764 C10.8075381,19.1633887 10.5914606,19.4832071 10.1044286,19.3617945 C10.1215776,19.3869654 8.85402075,19.0474052 8.85402075,19.0474052 L8,21.0309701 L10.2386809,21.59312 C10.6551569,21.6982454 11.0633033,21.8083064 11.4650802,21.9119512 L10.7531512,24.7913037 L12.4714821,25.2231572 L13.1765515,22.3744047 C13.6459444,22.5027268 14.1016181,22.6211781 14.5474924,22.7327197 L13.8448729,25.5681465 L15.5651637,26 L16.2770927,23.1260765 C19.2105535,23.6852652 21.4164063,23.4597142 22.3449027,20.7871579 C23.0930896,18.6352935 22.3076649,17.3940231 20.7642539,16.5846063 C21.8882491,16.32352 22.7349202,15.5787577 22.9607972,14.0403721 L22.9607972,14.0403721 Z M18.947736,19.8404701 C18.4509478,21.8009655 15.089729,20.7411289 14,20.4753828 L14.8827721,17 C15.9725011,17.267095 19.4669599,17.7958892 18.947736,19.8404701 L18.947736,19.8404701 Z M19.939159,13.790336 C19.400757,15.7832177 16.0778918,14.7706971 15,14.5224662 L15.9506331,11 C17.0285249,11.2482309 20.4998586,11.7115281 19.939159,13.790336 L19.939159,13.790336 Z" id="Shape" fill="#FFFFFF" fill-rule="nonzero" mask="url(#mask-2)"></path>
        </g>
    </g>
</svg>

<svg height="32" width="32" xmlns="http://www.w3.org/2000/svg" xmlns:xlink="http://www.w3.org/1999/xlink"><defs><path id="a" d="M31.521 19.87c-2.137 8.572-10.82 13.788-19.393 11.651C3.558 29.384-1.659 20.702.479 12.131 2.616 3.56 11.298-1.659 19.87.48c8.573 2.137 13.79 10.82 11.652 19.392z"/><mask id="b" fill="#fff"><use fill-rule="evenodd" xlink:href="#a"/></mask></defs><g fill="none"><use fill="#f7931a" xlink:href="#a"/><path d="M22.96 14.04c.313-2.101-1.276-3.23-3.448-3.985l.705-2.846-1.72-.432-.686 2.772a67.899 67.899 0 0 0-1.379-.327l.691-2.79L15.404 6l-.705 2.846a57.2 57.2 0 0 1-1.099-.26l.002-.01-2.372-.596-.458 1.85s1.277.296 1.25.314c.696.175.822.64.801 1.008l-.802 3.243c.048.012.11.03.179.057l-.182-.045-1.125 4.543c-.085.213-.302.533-.789.412.018.025-1.25-.315-1.25-.315L8 21.031l2.239.562c.416.105.824.215 1.226.319l-.712 2.88 1.718.431.706-2.849c.469.129.925.247 1.37.359l-.702 2.835 1.72.432.712-2.874c2.934.56 5.14.334 6.068-2.339.748-2.152-.037-3.393-1.58-4.202 1.123-.261 1.97-1.006 2.196-2.545zm-4.012 5.8c-.497 1.961-3.858.901-4.948.635L14.883 17c1.09.267 4.584.796 4.065 2.84zm.991-6.05c-.538 1.993-3.861.98-4.939.732L15.95 11c1.079.248 4.55.712 3.99 2.79z" fill="#fff" mask="url(#b)"/></g></svg>
